X: 30222
T: LONDON MARCH
C:
%R: march
B: Elias Howe "The Musician's Companion" Part 3 1844 p.22 #2
S: http://imslp.org/wiki/The_Musician's_Companion_(Howe,_Elias)
S: https://archive.org/stream/firstthirdpartof03howe/#page/66/mode/1up
Z: 2016 John Chambers <jc:trillian.mit.edu>
M: C
L: 1/8
K: D
% - - - - - - - - - - - - - - - - - - - - - - - - -
|:\
F2F>F F2E2 | D>FA>d B2A2 | B>dA>d G>dF>d | E>DE>F E2E>E |\
F2F>F F2E2 | D>F A>d B2A2 | B>dA>d G>cd>g | f2d2 "^FINE."d4 :|
a>gf>g a>ag>f | e>fg>e f2e2 | d>dd>e f>ff>g | a>ag>f f2e2 |\
A>GF>G A>AG>F | E>FG>E F2E2 | D>DD>E F>FF>G | A>AG>F F2"^D.C."E2 |]
% - - - - - - - - - - - - - - - - - - - - - - - - -
